X:579
T:Pa que les buenes moces (CT 222)
C:Tradicional
S:Msica Tradicional Asturiana, (C) Tello & Tito. Asturies, 2001.
S:http://pagina.de/MusTradAst <telloytito@asturies.org>
N:Cancin de empleo indeterminado, dictada por Jos Fernndez Cuesta, de veintinueve aos, de Uviu
A:Asturies
O:Uviu
Z:Cancioneru de Torner 222
M:3/4
L:1/8
Q:1/4=168
K:G
|G2 GG FG|A2 G4|B2 d2 c2|B2 A4|
G2 GG FG|A2 G4|B2 d2 c2|B2 A4|
G2 GG FG|A2 G4|B2 d2 c2|B2 A4|
G2 GG FG|A2 G4|d2 c2 B2|A2 G4|
G2 GG FG|A2 G4|d2 c2 B2|A2 G4||
W:Pa que les buenes moces
W:non digan nada
W:porque los buenos mozos
W:van a L'Habana,
W:de L'Habana escribieron
W:que vuelven luego.
W:Ai, amante del alma,
W:cunto te quiero!
W:Ai, amante del alma,
W:por ti me muero!
W:
